X: 1
T: the Beauty of the North
R: strathspey
B: RSCDS __-7
N: Fraser p.74, Skye p.195, Hunter 179, BSFC X-13, Atholl Collection
D: played by John Neil MacLean on Music from SF Collection, Scottish Traditional Fiddle Music tape
D: Ron Gonnella on Fiddle Gems tape
M: C
L: 1/8
K: G
G \
| "G"(B,<G) G>A B>c (d<e) | "A7"E<E A>G "D7"(F<D) D>C \
| "G"(B,<G) G>A B>c (df "D7"g/f/e/d/ "G"g2-g :|
b \
| "G"g>b d>b (gb | "Am"c'>b a>g "D7"(f<d) d>b \
| "G"g>b d>b g/a/b/c'/ d'>b | "D7"c'>a g/f/e/d/ "G"g2-g>a |
| "G"b>g (dd (B<G) | "Am"c>B A>G "D7"(F<D) D>C \
| "G"(B,<G) G>c (B<g) (df (g/f/)(e/d/) "G"g2-g |]
